icons-dark/actions/22/draw-donut.svg

<svg xmlns="http://www.w3.org/2000/svg" viewBox="0 0 22 22">
  <defs id="defs3051">
    <style type="text/css" id="current-color-scheme">
      .ColorScheme-Text {
        color:#f2f2f2
      }
      </style>
  </defs>
 <path 
    style="fill:currentColor;fill-opacity:1;stroke:none" 
	d="m11 3c-4.432 0-8 3.568-8 8 0 4.432 3.568 8 8 8 4.432 0 8-3.568 8-8 0-4.432-3.568-8-8-8m0 1c3.878 0 7 3.122 7 7 0 3.878-3.122 7-7 7-3.878 0-7-3.122-7-7 0-3.878 3.122-7 7-7m0 4a3 3 0 0 0 -3 3 3 3 0 0 0 3 3 3 3 0 0 0 3 -3 3 3 0 0 0 -3 -3m0 1a2 2 0 0 1 2 2 2 2 0 0 1 -2 2 2 2 0 0 1 -2 -2 2 2 0 0 1 2 -2"
    class="ColorScheme-Text"
    />  
</svg>

<?xml version="1.0" encoding="UTF-8" standalone="no"?>
<!-- Created with Inkscape (http://www.inkscape.org/) -->

<svg
   xmlns:dc="http://purl.org/dc/elements/1.1/"
   xmlns:cc="http://creativecommons.org/ns#"
   xmlns:rdf="http://www.w3.org/1999/02/22-rdf-syntax-ns#"
   xmlns:svg="http://www.w3.org/2000/svg"
   xmlns="http://www.w3.org/2000/svg"
   xmlns:sodipodi="http://sodipodi.sourceforge.net/DTD/sodipodi-0.dtd"
   xmlns:inkscape="http://www.inkscape.org/namespaces/inkscape"
   width="22"
   height="22"
   id="svg3760"
   version="1.1"
   inkscape:version="0.91+devel r"
   sodipodi:docname="draw-donut.svg">
  <defs
     id="defs3762" />
  <sodipodi:namedview
     id="base"
     pagecolor="#ffffff"
     bordercolor="#666666"
     borderopacity="1.0"
     inkscape:pageopacity="0.0"
     inkscape:pageshadow="2"
     inkscape:zoom="24.447653"
     inkscape:cx="11.120798"
     inkscape:cy="13.390744"
     inkscape:document-units="px"
     inkscape:current-layer="layer1"
     showgrid="true"
     fit-margin-top="0"
     fit-margin-left="0"
     fit-margin-right="0"
     fit-margin-bottom="0"
     inkscape:window-width="1366"
     inkscape:window-height="670"
     inkscape:window-x="-4"
     inkscape:window-y="29"
     inkscape:window-maximized="1"
     inkscape:showpageshadow="false">
    <sodipodi:guide
       position="1.443e-05,21.999988"
       orientation="24,0"
       id="guide4115" />
    <sodipodi:guide
       position="6.0000144,-1.18e-05"
       orientation="0,24"
       id="guide4117" />
    <sodipodi:guide
       position="22.000014,20.999988"
       orientation="-24,0"
       id="guide4119" />
    <sodipodi:guide
       position="1.443e-05,21.999988"
       orientation="0,-24"
       id="guide4121" />
    <sodipodi:guide
       position="2,20"
       orientation="18,0"
       id="guide4123" />
    <sodipodi:guide
       position="2,2"
       orientation="0,18"
       id="guide4125" />
    <sodipodi:guide
       position="20,2"
       orientation="-18,0"
       id="guide4127" />
    <sodipodi:guide
       position="20,20"
       orientation="0,-18"
       id="guide4129" />
    <sodipodi:guide
       position="3,19"
       orientation="16,0"
       id="guide4131" />
    <sodipodi:guide
       position="3,3"
       orientation="0,16"
       id="guide4133" />
    <sodipodi:guide
       position="19,3"
       orientation="-16,0"
       id="guide4135" />
    <sodipodi:guide
       position="19,19"
       orientation="0,-16"
       id="guide4137" />
    <inkscape:grid
       type="xygrid"
       id="grid4139"
       originx="-0.99998557"
       originy="-1.0000118" />
  </sodipodi:namedview>
  <metadata
     id="metadata3765">
    <rdf:RDF>
      <cc:Work
         rdf:about="">
        <dc:format>image/svg+xml</dc:format>
        <dc:type
           rdf:resource="http://purl.org/dc/dcmitype/StillImage" />
        <dc:title></dc:title>
      </cc:Work>
    </rdf:RDF>
  </metadata>
  <g
     inkscape:label="Capa 1"
     inkscape:groupmode="layer"
     id="layer1"
     transform="translate(-551.28571,-607.64789)">
    <path
       style="opacity:1;fill:#f2f2f2;fill-opacity:1;stroke:none"
       d="M 11 3 C 6.568 3 3 6.568 3 11 C 3 15.432 6.568 19 11 19 C 15.432 19 19 15.432 19 11 C 19 6.568 15.432 3 11 3 z M 11 4 C 14.878 4 18 7.122 18 11 C 18 14.878 14.878 18 11 18 C 7.122 18 4 14.878 4 11 C 4 7.122 7.122 4 11 4 z M 11 8 A 3 3 0 0 0 8 11 A 3 3 0 0 0 11 14 A 3 3 0 0 0 14 11 A 3 3 0 0 0 11 8 z M 11 9 A 2 2 0 0 1 13 11 A 2 2 0 0 1 11 13 A 2 2 0 0 1 9 11 A 2 2 0 0 1 11 9 z "
       transform="translate(551.28571,607.64789)"
       id="rect4112" />
  </g>
</svg>
